**kern	**kern	**dynam
*part1	*part1	*part1
*staff2	*staff1	*
*I"Piano	*	*
*clefF4	*clefG2	*
*k[f#c#g#d#a#]	*k[f#c#g#d#a#]	*
=1	=1	=1
(((4.BB 4.F#	16r	p
.	(16BLL	.
.	16d#	.
.	16f#	.
.	16d#	.
.	16BJJ)	.
=	=	=
4.EE))) 4.E	16r	.
.	(16BLL	.
.	16g#	.
.	16b	.
.	16g#	.
.	16BJJ)	.
=	=	=
(4.BB 4.F#	16r	.
.	(16BLL	.
.	16d#	.
.	16f#	.
.	16d#	.
.	16BJJ)	.
=	=	=
4.FF#) 4.F#	16r	.
.	(16A#LL	.
.	16c#	.
.	16f#	.
.	16c#	.
.	16A#JJ)	.
=	=	=
(4.BB 4.F#	16r	.
.	(16BLL	.
.	16d#	.
.	16f#	.
.	16d#	.
.	16BJJ)	.
=	=	=
4.EE) 4.E	16r	.
.	(16BLL	.
.	16g#	.
.	16b	.
.	16g#	.
.	16BJJ)	.
=	=	=
4DD# 4D#	16r	.
!	!LO:TX:a:i:t=ritard.	!
.	(16BLL	.
.	16g#	.
.	16b	.
8DD# 8D#	16c#	.
.	16a#JJ)	.
=	=	=
4GG# 4D#	4B 4g#	.
8CC# 8C#	8c#	.
=	=	=
*-	*-	*-
!!!system-decoration: {(s1,s2)}
